src/components/con/2021/images/seats.svg

<svg xmlns="http://www.w3.org/2000/svg" data-name="Capa 1" viewBox="0 0 490 490"><path fill="#fff" d="M462.43 240a8.84 8.84 0 000-17.67h-8.84v-46.88a44.25 44.25 0 00-44.19-44.19H374a44.24 44.24 0 00-44.19 44.19v46.85h-23v-46.85a44.25 44.25 0 00-44.19-44.19h-35.3a44.25 44.25 0 00-44.19 44.19v46.85h-23v-46.85A44.24 44.24 0 00116 131.26H80.6a44.25 44.25 0 00-44.19 44.19v46.85h-8.84a8.84 8.84 0 000 17.67h8.84v20.33h-8.84a8.84 8.84 0 000 17.68h61.87v17.68H80.6a8.83 8.83 0 00-8.83 8.83V331H45.25a8.84 8.84 0 000 17.68h399.5a8.84 8.84 0 000-17.68h-26.52v-26.51a8.83 8.83 0 00-8.83-8.83h-8.84V278h61.87a8.84 8.84 0 000-17.68h-8.84V240zm-132.58 0v20.3h-23V240zm-129-64.52a26.54 26.54 0 0126.51-26.51h35.36a26.54 26.54 0 0126.51 26.51v46.82h-8.84a8.84 8.84 0 000 17.67h8.84v20.33h-88.42V240h8.84a8.84 8.84 0 000-17.67h-8.84zM183.13 240v20.3h-23V240zm-129 0h8.84a8.84 8.84 0 100-17.67h-8.88v-46.88a26.54 26.54 0 0126.51-26.51H116a26.54 26.54 0 0126.51 26.51v46.85h-8.83a8.84 8.84 0 100 17.67h8.83v20.33H54.09zm53 38h129v17.68h-8.84a8.83 8.83 0 00-8.84 8.83V331H124.8v-26.51a8.83 8.83 0 00-8.84-8.83h-8.84zm146.72 35.35V331h-17.69v-17.67zm-164.4 0h17.68V331H89.44zM382.88 331v-17.67h17.68V331zm0-35.35H374a8.83 8.83 0 00-8.84 8.83V331h-93.64v-26.51a8.83 8.83 0 00-8.84-8.83h-8.84V278h129zm53-35.36h-88.35V240h8.83a8.84 8.84 0 100-17.67h-8.83v-46.88A26.54 26.54 0 01374 148.94h35.4a26.54 26.54 0 0126.51 26.51v46.85h-8.84a8.84 8.84 0 100 17.67h8.84z"/><path fill="#fff" d="M263.75 177a8.84 8.84 0 00-12.5 0l-6.25 6.28-6.25-6.28a8.84 8.84 0 00-12.5 12.5l6.25 6.25-6.25 6.25a8.84 8.84 0 0012.5 12.5l6.25-6.25 6.25 6.25a8.84 8.84 0 0012.5-12.5l-6.25-6.25 6.25-6.25a8.84 8.84 0 000-12.5z"/></svg>

<svg id="Capa_1" data-name="Capa 1" xmlns="http://www.w3.org/2000/svg" viewBox="0 0 490 490"><path d="M462.43,240a8.84,8.84,0,0,0,0-17.67h-8.84V175.45a44.25,44.25,0,0,0-44.19-44.19H374a44.24,44.24,0,0,0-44.19,44.19V222.3h-23V175.45a44.25,44.25,0,0,0-44.19-44.19H227.32a44.25,44.25,0,0,0-44.19,44.19V222.3h-23V175.45A44.24,44.24,0,0,0,116,131.26H80.6a44.25,44.25,0,0,0-44.19,44.19V222.3H27.57a8.84,8.84,0,0,0,0,17.67h8.84V260.3H27.57a8.84,8.84,0,0,0,0,17.68H89.44v17.68H80.6a8.83,8.83,0,0,0-8.83,8.83V331H45.25a8.84,8.84,0,0,0,0,17.68h399.5a8.84,8.84,0,0,0,0-17.68H418.23V304.49a8.83,8.83,0,0,0-8.83-8.83h-8.84V278h61.87a8.84,8.84,0,0,0,0-17.68h-8.84V240Zm-132.58,0V260.3h-23V240Zm-129-64.52a26.54,26.54,0,0,1,26.51-26.51h35.36a26.54,26.54,0,0,1,26.51,26.51V222.3h-8.84a8.84,8.84,0,0,0,0,17.67h8.84V260.3H200.81V240h8.84a8.84,8.84,0,0,0,0-17.67h-8.84ZM183.13,240V260.3h-23V240Zm-129,0h8.84a8.84,8.84,0,1,0,0-17.67H54.09V175.45A26.54,26.54,0,0,1,80.6,148.94H116a26.54,26.54,0,0,1,26.51,26.51V222.3h-8.83a8.84,8.84,0,1,0,0,17.67h8.83V260.3H54.09Zm53,38h129v17.68h-8.84a8.83,8.83,0,0,0-8.84,8.83V331H124.8V304.49a8.83,8.83,0,0,0-8.84-8.83h-8.84Zm146.72,35.35V331H236.16V313.33Zm-164.4,0h17.68V331H89.44ZM382.88,331V313.33h17.68V331Zm0-35.35H374a8.83,8.83,0,0,0-8.84,8.83V331H271.52V304.49a8.83,8.83,0,0,0-8.84-8.83h-8.84V278h129Zm53-35.36H347.53V240h8.83a8.84,8.84,0,1,0,0-17.67h-8.83V175.45A26.54,26.54,0,0,1,374,148.94H409.4a26.54,26.54,0,0,1,26.51,26.51V222.3h-8.84a8.84,8.84,0,1,0,0,17.67h8.84Z" fill="#fff"/><path d="M263.75,177a8.84,8.84,0,0,0-12.5,0L245,183.28,238.75,177a8.84,8.84,0,0,0-12.5,12.5l6.25,6.25L226.25,202a8.84,8.84,0,0,0,12.5,12.5l6.25-6.25,6.25,6.25a8.84,8.84,0,0,0,12.5-12.5l-6.25-6.25,6.25-6.25A8.84,8.84,0,0,0,263.75,177Z" fill="#fff"/></svg>
